X:1
T:Title
%%score { 1 | ( 2 3 ) }
L:1/8
Q:1/4=100
M:2/4
K:F
V:1 treble nm="Grand Piano"
V:2 treble 
V:3 treble 
V:1
 A2 AB | c3 F | E2 G2 | F4 | A2 Bc | d2 G2 | G4 | e2 dc | f3 c | B2 [Fc]2 | [FA]4 | %11
w: Cuthbert~Howard * *|||||||||||
 [_Ec]2 [DB][G,DG] | .[B,D]2 .[G,CE]2 | [F,A,CF]4 |] %14
w: |||
V:2
 [F,CF]2 [F,CF][G,CE] | [A,CF]3[K:bass] [C,A,C] | [C,G,C]2 [C,B,C]2 | [F,A,C]4 | %4
 [F,CF]2[K:treble] [G,CF][A,CF] | [B,F]2 [=B,DF]2 | [CE]4 | [B,CG]2 [B,CG][B,CG] | [A,CF]3 [A,CF] | %9
 [G,DF]2[K:bass] [C,C]2 | [F,C]4 | [A,,F,]2 [B,,F,]B,, | z A, z B, | F,,4 |] %14
V:3
 x4 | x3[K:bass] x | x4 | x4 | x2[K:treble] x2 | x4 | x4 | x4 | x4 | x2[K:bass] x2 | x4 | x4 | %12
 B,,2 C,2 | x4 |] %14

